images/6604355.svg

<?xml version="1.0" encoding="UTF-8"?>
<svg xmlns="http://www.w3.org/2000/svg" xmlns:xlink="http://www.w3.org/1999/xlink" width="300pt" height="300pt" viewBox="0 0 300 300" version="1.1">
<defs>
<g>
<symbol overflow="visible" id="glyph0-0">
<path style="stroke:none;" d="M 0.453125 1.59375 L 0.453125 -6.34375 L 4.953125 -6.34375 L 4.953125 1.59375 Z M 0.953125 1.09375 L 4.453125 1.09375 L 4.453125 -5.84375 L 0.953125 -5.84375 Z M 0.953125 1.09375 "/>
</symbol>
<symbol overflow="visible" id="glyph0-1">
<path style="stroke:none;" d="M 0.890625 -6.5625 L 2.078125 -6.5625 L 4.984375 -1.078125 L 4.984375 -6.5625 L 5.84375 -6.5625 L 5.84375 0 L 4.65625 0 L 1.75 -5.484375 L 1.75 0 L 0.890625 0 Z M 0.890625 -6.5625 "/>
</symbol>
<symbol overflow="visible" id="glyph0-2">
<path style="stroke:none;" d="M 0.890625 -6.5625 L 1.765625 -6.5625 L 1.765625 -3.875 L 5 -3.875 L 5 -6.5625 L 5.890625 -6.5625 L 5.890625 0 L 5 0 L 5 -3.125 L 1.765625 -3.125 L 1.765625 0 L 0.890625 0 Z M 0.890625 -6.5625 "/>
</symbol>
<symbol overflow="visible" id="glyph0-3">
<path style="stroke:none;" d="M 3.546875 -5.953125 C 2.898438 -5.953125 2.382812 -5.710938 2 -5.234375 C 1.625 -4.753906 1.4375 -4.101562 1.4375 -3.28125 C 1.4375 -2.445312 1.625 -1.789062 2 -1.3125 C 2.382812 -0.832031 2.898438 -0.59375 3.546875 -0.59375 C 4.191406 -0.59375 4.703125 -0.832031 5.078125 -1.3125 C 5.453125 -1.789062 5.640625 -2.445312 5.640625 -3.28125 C 5.640625 -4.101562 5.453125 -4.753906 5.078125 -5.234375 C 4.703125 -5.710938 4.191406 -5.953125 3.546875 -5.953125 Z M 3.546875 -6.6875 C 4.460938 -6.6875 5.195312 -6.375 5.75 -5.75 C 6.300781 -5.132812 6.578125 -4.3125 6.578125 -3.28125 C 6.578125 -2.238281 6.300781 -1.410156 5.75 -0.796875 C 5.195312 -0.179688 4.460938 0.125 3.546875 0.125 C 2.617188 0.125 1.878906 -0.179688 1.328125 -0.796875 C 0.773438 -1.410156 0.5 -2.238281 0.5 -3.28125 C 0.5 -4.3125 0.773438 -5.132812 1.328125 -5.75 C 1.878906 -6.375 2.617188 -6.6875 3.546875 -6.6875 Z M 3.546875 -6.6875 "/>
</symbol>
</g>
</defs>
<g id="surface48065">
<rect x="0" y="0" width="300" height="300" style="fill:rgb(100%,100%,100%);fill-opacity:1;stroke:none;"/>
<path style="fill:none;stroke-width:1.2;stroke-linecap:butt;stroke-linejoin:miter;stroke:rgb(0%,0%,0%);stroke-opacity:1;stroke-miterlimit:10;" d="M 84.609375 95.816406 L 91.222656 103.632812 "/>
<path style="fill:none;stroke-width:1.2;stroke-linecap:butt;stroke-linejoin:miter;stroke:rgb(0%,0%,100%);stroke-opacity:1;stroke-miterlimit:10;" d="M 91.222656 103.632812 L 97.835938 111.453125 "/>
<path style="fill:none;stroke-width:1.2;stroke-linecap:butt;stroke-linejoin:miter;stroke:rgb(0%,0%,100%);stroke-opacity:1;stroke-miterlimit:10;" d="M 97.835938 111.453125 L 107.914062 109.632812 "/>
<path style="fill:none;stroke-width:1.2;stroke-linecap:butt;stroke-linejoin:miter;stroke:rgb(0%,0%,0%);stroke-opacity:1;stroke-miterlimit:10;" d="M 107.914062 109.632812 L 117.992188 107.816406 "/>
<path style="fill:none;stroke-width:1.2;stroke-linecap:butt;stroke-linejoin:miter;stroke:rgb(0%,0%,0%);stroke-opacity:1;stroke-miterlimit:10;" d="M 90.910156 130.726562 L 94.371094 121.089844 "/>
<path style="fill:none;stroke-width:1.2;stroke-linecap:butt;stroke-linejoin:miter;stroke:rgb(0%,0%,100%);stroke-opacity:1;stroke-miterlimit:10;" d="M 94.371094 121.089844 L 97.835938 111.453125 "/>
<path style=" stroke:none;fill-rule:nonzero;fill:rgb(100%,100%,100%);fill-opacity:1;" d="M 94.835938 105.953125 L 101.835938 105.953125 L 101.835938 116.953125 L 94.835938 116.953125 Z M 94.835938 105.953125 "/>
<g style="fill:rgb(0%,0%,100%);fill-opacity:1;">
  <use xlink:href="#glyph0-1" x="94.835938" y="114.616211"/>
</g>
<path style="fill:none;stroke-width:1.2;stroke-linecap:butt;stroke-linejoin:miter;stroke:rgb(0%,0%,0%);stroke-opacity:1;stroke-miterlimit:10;" d="M 117.992188 107.816406 L 131.21875 123.453125 "/>
<path style="fill:none;stroke-width:1.2;stroke-linecap:butt;stroke-linejoin:miter;stroke:rgb(0%,0%,0%);stroke-opacity:1;stroke-miterlimit:10;" d="M 131.21875 123.453125 L 124.292969 142.726562 "/>
<path style="fill:none;stroke-width:1;stroke-linecap:butt;stroke-linejoin:miter;stroke:rgb(0%,0%,0%);stroke-opacity:1;stroke-miterlimit:10;" d="M 131.21875 123.453125 L 131.21875 123.453125 M 134.21875 123.441406 L 134.035156 122.414062 M 137.21875 123.429688 L 136.847656 121.375 M 140.21875 123.417969 L 139.664062 120.339844 M 143.21875 123.40625 L 142.476562 119.300781 M 146.21875 123.394531 L 145.292969 118.261719 M 149.21875 123.382812 L 148.109375 117.226562 M 152.015625 123.371094 L 150.730469 116.257812 "/>
<path style=" stroke:none;fill-rule:nonzero;fill:rgb(0%,0%,0%);fill-opacity:1;" d="M 104.136719 146.363281 L 124.933594 146.28125 L 123.648438 139.167969 Z M 104.136719 146.363281 "/>
<path style="fill:none;stroke-width:1.2;stroke-linecap:butt;stroke-linejoin:miter;stroke:rgb(0%,0%,0%);stroke-opacity:1;stroke-miterlimit:10;" d="M 104.136719 146.363281 L 90.910156 130.726562 "/>
<path style="fill:none;stroke-width:1.2;stroke-linecap:butt;stroke-linejoin:miter;stroke:rgb(0%,0%,0%);stroke-opacity:1;stroke-miterlimit:10;" d="M 97.207031 165.636719 L 104.136719 146.363281 "/>
<path style="fill:none;stroke-width:1;stroke-linecap:butt;stroke-linejoin:miter;stroke:rgb(0%,0%,0%);stroke-opacity:1;stroke-miterlimit:10;" d="M 90.910156 130.726562 L 90.910156 130.726562 M 87.910156 130.738281 L 88.09375 131.765625 M 84.910156 130.75 L 85.277344 132.800781 M 81.910156 130.761719 L 82.464844 133.839844 M 78.910156 130.773438 L 79.648438 134.878906 M 75.910156 130.785156 L 76.835938 135.914062 M 72.910156 130.796875 L 74.019531 136.953125 M 70.109375 130.808594 L 71.394531 137.921875 "/>
<path style="fill:none;stroke-width:1.2;stroke-linecap:butt;stroke-linejoin:miter;stroke:rgb(0%,0%,0%);stroke-opacity:1;stroke-miterlimit:10;" d="M 70.753906 134.363281 L 63.824219 153.636719 "/>
<path style="fill:none;stroke-width:1.2;stroke-linecap:butt;stroke-linejoin:miter;stroke:rgb(0%,0%,0%);stroke-opacity:1;stroke-miterlimit:10;" d="M 63.824219 153.636719 L 45.78125 163.324219 "/>
<path style="fill:none;stroke-width:1.2;stroke-linecap:butt;stroke-linejoin:miter;stroke:rgb(0%,0%,0%);stroke-opacity:1;stroke-miterlimit:10;" d="M 64.300781 158.851562 L 49.863281 166.601562 "/>
<path style="fill:none;stroke-width:1.2;stroke-linecap:butt;stroke-linejoin:miter;stroke:rgb(0%,0%,0%);stroke-opacity:1;stroke-miterlimit:10;" d="M 77.054688 169.273438 L 63.824219 153.636719 "/>
<path style="fill:none;stroke-width:1.2;stroke-linecap:butt;stroke-linejoin:miter;stroke:rgb(0%,0%,0%);stroke-opacity:1;stroke-miterlimit:10;" d="M 45.78125 163.324219 L 47.597656 173.402344 "/>
<path style="fill:none;stroke-width:1.2;stroke-linecap:butt;stroke-linejoin:miter;stroke:rgb(0%,0%,100%);stroke-opacity:1;stroke-miterlimit:10;" d="M 47.597656 173.402344 L 49.417969 183.480469 "/>
<path style="fill:none;stroke-width:1.2;stroke-linecap:butt;stroke-linejoin:miter;stroke:rgb(0%,0%,100%);stroke-opacity:1;stroke-miterlimit:10;" d="M 49.417969 183.480469 L 59.773438 186.011719 "/>
<path style="fill:none;stroke-width:1.2;stroke-linecap:butt;stroke-linejoin:miter;stroke:rgb(0%,0%,0%);stroke-opacity:1;stroke-miterlimit:10;" d="M 59.773438 186.011719 L 70.125 188.546875 "/>
<path style="fill:none;stroke-width:1.2;stroke-linecap:butt;stroke-linejoin:miter;stroke:rgb(0%,0%,100%);stroke-opacity:1;stroke-miterlimit:10;" d="M 49.417969 183.480469 L 42.332031 190.875 "/>
<path style="fill:none;stroke-width:1.2;stroke-linecap:butt;stroke-linejoin:miter;stroke:rgb(0%,0%,0%);stroke-opacity:1;stroke-miterlimit:10;" d="M 42.332031 190.875 L 35.25 198.269531 "/>
<path style=" stroke:none;fill-rule:nonzero;fill:rgb(100%,100%,100%);fill-opacity:1;" d="M 46.417969 177.980469 L 53.417969 177.980469 L 53.417969 188.980469 L 46.417969 188.980469 Z M 46.417969 177.980469 "/>
<g style="fill:rgb(0%,0%,100%);fill-opacity:1;">
  <use xlink:href="#glyph0-1" x="46.417969" y="186.643555"/>
</g>
<path style="fill:none;stroke-width:1.2;stroke-linecap:butt;stroke-linejoin:miter;stroke:rgb(0%,0%,0%);stroke-opacity:1;stroke-miterlimit:10;" d="M 70.125 188.546875 L 83.351562 204.183594 "/>
<path style="fill:none;stroke-width:1.2;stroke-linecap:butt;stroke-linejoin:miter;stroke:rgb(0%,0%,0%);stroke-opacity:1;stroke-miterlimit:10;" d="M 75.128906 187 L 85.710938 199.507812 "/>
<path style="fill:none;stroke-width:1.2;stroke-linecap:butt;stroke-linejoin:miter;stroke:rgb(0%,0%,0%);stroke-opacity:1;stroke-miterlimit:10;" d="M 77.054688 169.273438 L 70.125 188.546875 "/>
<path style="fill:none;stroke-width:1.2;stroke-linecap:butt;stroke-linejoin:miter;stroke:rgb(0%,0%,0%);stroke-opacity:1;stroke-miterlimit:10;" d="M 83.351562 204.183594 L 103.507812 200.546875 "/>
<path style="fill:none;stroke-width:1.2;stroke-linecap:butt;stroke-linejoin:miter;stroke:rgb(0%,0%,0%);stroke-opacity:1;stroke-miterlimit:10;" d="M 103.507812 200.546875 L 110.4375 181.273438 "/>
<path style="fill:none;stroke-width:1.2;stroke-linecap:butt;stroke-linejoin:miter;stroke:rgb(0%,0%,0%);stroke-opacity:1;stroke-miterlimit:10;" d="M 99.667969 196.988281 L 105.207031 181.570312 "/>
<path style="fill:none;stroke-width:1.2;stroke-linecap:butt;stroke-linejoin:miter;stroke:rgb(0%,0%,0%);stroke-opacity:1;stroke-miterlimit:10;" d="M 110.4375 181.273438 L 97.207031 165.636719 "/>
<path style="fill:none;stroke-width:1.2;stroke-linecap:butt;stroke-linejoin:miter;stroke:rgb(0%,0%,0%);stroke-opacity:1;stroke-miterlimit:10;" d="M 97.207031 165.636719 L 77.054688 169.273438 "/>
<path style="fill:none;stroke-width:1.2;stroke-linecap:butt;stroke-linejoin:miter;stroke:rgb(0%,0%,0%);stroke-opacity:1;stroke-miterlimit:10;" d="M 94.335938 161.257812 L 78.210938 164.167969 "/>
<path style="fill:none;stroke-width:1.2;stroke-linecap:butt;stroke-linejoin:miter;stroke:rgb(0%,0%,0%);stroke-opacity:1;stroke-miterlimit:10;" d="M 151.375 119.816406 L 157.988281 127.632812 "/>
<path style="fill:none;stroke-width:1.2;stroke-linecap:butt;stroke-linejoin:miter;stroke:rgb(0%,0%,100%);stroke-opacity:1;stroke-miterlimit:10;" d="M 157.988281 127.632812 L 164.601562 135.449219 "/>
<path style="fill:none;stroke-width:1.2;stroke-linecap:butt;stroke-linejoin:miter;stroke:rgb(0%,0%,100%);stroke-opacity:1;stroke-miterlimit:10;" d="M 164.601562 135.449219 L 174.679688 133.632812 "/>
<path style="fill:none;stroke-width:1.2;stroke-linecap:butt;stroke-linejoin:miter;stroke:rgb(0%,0%,0%);stroke-opacity:1;stroke-miterlimit:10;" d="M 174.679688 133.632812 L 184.757812 131.8125 "/>
<path style=" stroke:none;fill-rule:nonzero;fill:rgb(100%,100%,100%);fill-opacity:1;" d="M 157.601562 129.949219 L 171.601562 129.949219 L 171.601562 140.949219 L 157.601562 140.949219 Z M 157.601562 129.949219 "/>
<g style="fill:rgb(0%,0%,100%);fill-opacity:1;">
  <use xlink:href="#glyph0-1" x="157.601562" y="138.612305"/>
  <use xlink:href="#glyph0-2" x="164.579102" y="138.612305"/>
</g>
<path style="fill:none;stroke-width:1.2;stroke-linecap:butt;stroke-linejoin:miter;stroke:rgb(0%,0%,0%);stroke-opacity:1;stroke-miterlimit:10;" d="M 187.023438 132.628906 L 190.488281 122.992188 "/>
<path style="fill:none;stroke-width:1.2;stroke-linecap:butt;stroke-linejoin:miter;stroke:rgb(100%,0%,0%);stroke-opacity:1;stroke-miterlimit:10;" d="M 190.488281 122.992188 L 193.953125 113.355469 "/>
<path style="fill:none;stroke-width:1.2;stroke-linecap:butt;stroke-linejoin:miter;stroke:rgb(0%,0%,0%);stroke-opacity:1;stroke-miterlimit:10;" d="M 182.488281 131 L 185.953125 121.363281 "/>
<path style="fill:none;stroke-width:1.2;stroke-linecap:butt;stroke-linejoin:miter;stroke:rgb(100%,0%,0%);stroke-opacity:1;stroke-miterlimit:10;" d="M 185.953125 121.363281 L 189.417969 111.726562 "/>
<path style="fill:none;stroke-width:1.2;stroke-linecap:butt;stroke-linejoin:miter;stroke:rgb(0%,0%,0%);stroke-opacity:1;stroke-miterlimit:10;" d="M 184.757812 131.8125 L 191.371094 139.632812 "/>
<path style="fill:none;stroke-width:1.2;stroke-linecap:butt;stroke-linejoin:miter;stroke:rgb(100%,0%,0%);stroke-opacity:1;stroke-miterlimit:10;" d="M 191.371094 139.632812 L 197.984375 147.449219 "/>
<path style=" stroke:none;fill-rule:nonzero;fill:rgb(100%,100%,100%);fill-opacity:1;" d="M 187.683594 107.039062 L 195.683594 107.039062 L 195.683594 118.039062 L 187.683594 118.039062 Z M 187.683594 107.039062 "/>
<g style="fill:rgb(100%,0%,0%);fill-opacity:1;">
  <use xlink:href="#glyph0-3" x="187.683594" y="115.702148"/>
</g>
<path style="fill:none;stroke-width:1.2;stroke-linecap:butt;stroke-linejoin:miter;stroke:rgb(100%,0%,0%);stroke-opacity:1;stroke-miterlimit:10;" d="M 197.984375 147.449219 L 208.0625 145.632812 "/>
<path style="fill:none;stroke-width:1.2;stroke-linecap:butt;stroke-linejoin:miter;stroke:rgb(0%,0%,0%);stroke-opacity:1;stroke-miterlimit:10;" d="M 208.0625 145.632812 L 218.140625 143.8125 "/>
<path style=" stroke:none;fill-rule:nonzero;fill:rgb(100%,100%,100%);fill-opacity:1;" d="M 193.984375 141.949219 L 201.984375 141.949219 L 201.984375 152.949219 L 193.984375 152.949219 Z M 193.984375 141.949219 "/>
<g style="fill:rgb(100%,0%,0%);fill-opacity:1;">
  <use xlink:href="#glyph0-3" x="193.984375" y="150.612305"/>
</g>
<path style="fill:none;stroke-width:1.2;stroke-linecap:butt;stroke-linejoin:miter;stroke:rgb(0%,0%,0%);stroke-opacity:1;stroke-miterlimit:10;" d="M 218.140625 143.8125 L 231.367188 159.449219 "/>
<path style="fill:none;stroke-width:1.2;stroke-linecap:butt;stroke-linejoin:miter;stroke:rgb(0%,0%,0%);stroke-opacity:1;stroke-miterlimit:10;" d="M 231.367188 159.449219 L 224.441406 178.722656 "/>
<path style="fill:none;stroke-width:1.2;stroke-linecap:butt;stroke-linejoin:miter;stroke:rgb(0%,0%,0%);stroke-opacity:1;stroke-miterlimit:10;" d="M 235.210938 163.007812 L 229.667969 178.425781 "/>
<path style="fill:none;stroke-width:1.2;stroke-linecap:butt;stroke-linejoin:miter;stroke:rgb(0%,0%,0%);stroke-opacity:1;stroke-miterlimit:10;" d="M 251.523438 155.8125 L 231.367188 159.449219 "/>
<path style="fill:none;stroke-width:1.2;stroke-linecap:butt;stroke-linejoin:miter;stroke:rgb(0%,0%,0%);stroke-opacity:1;stroke-miterlimit:10;" d="M 224.441406 178.722656 L 237.667969 194.359375 "/>
<path style="fill:none;stroke-width:1.2;stroke-linecap:butt;stroke-linejoin:miter;stroke:rgb(0%,0%,0%);stroke-opacity:1;stroke-miterlimit:10;" d="M 237.667969 194.359375 L 257.824219 190.722656 "/>
<path style="fill:none;stroke-width:1.2;stroke-linecap:butt;stroke-linejoin:miter;stroke:rgb(0%,0%,0%);stroke-opacity:1;stroke-miterlimit:10;" d="M 238.828125 189.253906 L 254.949219 186.34375 "/>
<path style="fill:none;stroke-width:1.2;stroke-linecap:butt;stroke-linejoin:miter;stroke:rgb(0%,0%,0%);stroke-opacity:1;stroke-miterlimit:10;" d="M 257.824219 190.722656 L 264.75 171.449219 "/>
<path style="fill:none;stroke-width:1.2;stroke-linecap:butt;stroke-linejoin:miter;stroke:rgb(0%,0%,0%);stroke-opacity:1;stroke-miterlimit:10;" d="M 264.75 171.449219 L 251.523438 155.8125 "/>
<path style="fill:none;stroke-width:1.2;stroke-linecap:butt;stroke-linejoin:miter;stroke:rgb(0%,0%,0%);stroke-opacity:1;stroke-miterlimit:10;" d="M 259.75 172.996094 L 249.167969 160.488281 "/>
</g>
</svg>

<svg xmlns="http://www.w3.org/2000/svg" xmlns:xlink="http://www.w3.org/1999/xlink" width="300pt" height="300pt" viewBox="0 0 300 300"><defs><symbol overflow="visible"><path d="M.453 1.594v-7.938h4.5v7.938zm.5-.5h3.5v-6.938h-3.5zm0 0"/></symbol><symbol overflow="visible" id="a"><path d="M.89-6.563H2.08l2.906 5.485v-5.484h.86V0H4.656L1.75-5.484V0H.89zm0 0"/></symbol><symbol overflow="visible" id="b"><path d="M.89-6.563h.876v2.688H5v-2.688h.89V0H5v-3.125H1.766V0H.89zm0 0"/></symbol><symbol overflow="visible" id="c"><path d="M3.547-5.953c-.65 0-1.164.242-1.547.72-.375.48-.563 1.13-.563 1.952 0 .835.188 1.49.563 1.967.383.48.898.72 1.547.72.644 0 1.156-.24 1.53-.72.376-.476.564-1.132.564-1.968 0-.822-.187-1.474-.562-1.954-.375-.477-.887-.72-1.53-.72zm0-.734c.914 0 1.648.312 2.203.937.55.617.828 1.438.828 2.47 0 1.042-.277 1.87-.828 2.483-.555.617-1.29.922-2.203.922-.93 0-1.668-.305-2.22-.922C.774-1.41.5-2.237.5-3.28c0-1.033.273-1.853.828-2.47.55-.625 1.29-.938 2.22-.938zm0 0"/></symbol></defs><g><path fill="#fff" d="M0 0h300v300H0z"/><path d="M84.61 95.816l6.613 7.817" stroke-width="1.2" stroke="#000" stroke-miterlimit="10" fill="none"/><path d="M91.223 103.633l6.613 7.82M97.836 111.453l10.078-1.82" stroke-width="1.2" stroke="#00f" stroke-miterlimit="10" fill="none"/><path d="M107.914 109.633l10.078-1.817M90.91 130.727l3.46-9.637" stroke-width="1.2" stroke="#000" stroke-miterlimit="10" fill="none"/><path d="M94.37 121.09l3.466-9.637" stroke-width="1.2" stroke="#00f" stroke-miterlimit="10" fill="none"/><path d="M94.836 105.953h7v11h-7zm0 0" fill="#fff"/><use xlink:href="#a" x="94.836" y="114.616" fill="#00f"/><path d="M117.992 107.816l13.227 15.637M131.22 123.453l-6.927 19.274" stroke-width="1.2" stroke="#000" stroke-miterlimit="10" fill="none"/><path d="M131.22 123.453m3-.012l-.185-1.026m3.184 1.016l-.372-2.055m3.37 2.043l-.554-3.078m3.555 3.066l-.743-4.105m3.742 4.095l-.927-5.133m3.926 5.12l-1.11-6.155m3.906 6.144l-1.286-7.112" stroke="#000" stroke-miterlimit="10" fill="none"/><path d="M104.137 146.363l20.797-.082-1.286-7.112zm0 0"/><path d="M104.137 146.363L90.91 130.727M97.207 165.637l6.93-19.274" stroke-width="1.2" stroke="#000" stroke-miterlimit="10" fill="none"/><path d="M90.91 130.727m-3 .01l.184 1.03m-3.184-1.017l.367 2.05m-3.367-2.038l.555 3.078m-3.555-3.067l.738 4.106m-3.738-4.095l.926 5.13m-3.926-5.118l1.11 6.156m-3.91-6.144l1.285 7.112" stroke="#000" stroke-miterlimit="10" fill="none"/><path d="M70.754 134.363l-6.93 19.274M63.824 153.637l-18.043 9.687M64.3 158.852l-14.437 7.75M77.055 169.273l-13.23-15.636M45.78 163.324l1.818 10.078" stroke-width="1.2" stroke="#000" stroke-miterlimit="10" fill="none"/><path d="M47.598 173.402l1.82 10.078M49.418 183.48l10.355 2.532" stroke-width="1.2" stroke="#00f" stroke-miterlimit="10" fill="none"/><path d="M59.773 186.012l10.352 2.535" stroke-width="1.2" stroke="#000" stroke-miterlimit="10" fill="none"/><path d="M49.418 183.48l-7.086 7.395" stroke-width="1.2" stroke="#00f" stroke-miterlimit="10" fill="none"/><path d="M42.332 190.875l-7.082 7.395" stroke-width="1.2" stroke="#000" stroke-miterlimit="10" fill="none"/><path d="M46.418 177.98h7v11h-7zm0 0" fill="#fff"/><use xlink:href="#a" x="46.418" y="186.644" fill="#00f"/><path d="M70.125 188.547l13.227 15.637M75.13 187l10.58 12.508M77.055 169.273l-6.93 19.274M83.352 204.184l20.156-3.637M103.508 200.547l6.93-19.274M99.668 196.988l5.54-15.418M110.438 181.273l-13.23-15.636M97.207 165.637l-20.152 3.636M94.336 161.258l-16.125 2.91M151.375 119.816l6.613 7.817" stroke-width="1.2" stroke="#000" stroke-miterlimit="10" fill="none"/><path d="M157.988 127.633l6.614 7.816M164.602 135.45l10.078-1.817" stroke-width="1.2" stroke="#00f" stroke-miterlimit="10" fill="none"/><path d="M174.68 133.633l10.078-1.82" stroke-width="1.2" stroke="#000" stroke-miterlimit="10" fill="none"/><path d="M157.602 129.95h14v11h-14zm0 0" fill="#fff"/><g fill="#00f"><use xlink:href="#a" x="157.602" y="138.612"/><use xlink:href="#b" x="164.579" y="138.612"/></g><path d="M187.023 132.63l3.465-9.638" stroke-width="1.2" stroke="#000" stroke-miterlimit="10" fill="none"/><path d="M190.488 122.992l3.465-9.637" stroke-width="1.2" stroke="#f00" stroke-miterlimit="10" fill="none"/><path d="M182.488 131l3.465-9.637" stroke-width="1.2" stroke="#000" stroke-miterlimit="10" fill="none"/><path d="M185.953 121.363l3.465-9.636" stroke-width="1.2" stroke="#f00" stroke-miterlimit="10" fill="none"/><path d="M184.758 131.813l6.613 7.82" stroke-width="1.2" stroke="#000" stroke-miterlimit="10" fill="none"/><path d="M191.37 139.633l6.614 7.816" stroke-width="1.2" stroke="#f00" stroke-miterlimit="10" fill="none"/><path d="M187.684 107.04h8v11h-8zm0 0" fill="#fff"/><use xlink:href="#c" x="187.684" y="115.702" fill="#f00"/><path d="M197.984 147.45l10.078-1.817" stroke-width="1.2" stroke="#f00" stroke-miterlimit="10" fill="none"/><path d="M208.063 145.633l10.078-1.82" stroke-width="1.2" stroke="#000" stroke-miterlimit="10" fill="none"/><path d="M193.984 141.95h8v11h-8zm0 0" fill="#fff"/><use xlink:href="#c" x="193.984" y="150.612" fill="#f00"/><path d="M218.14 143.813l13.227 15.636M231.367 159.45l-6.926 19.273M235.21 163.008l-5.542 15.418M251.523 155.813l-20.156 3.636M224.44 178.723l13.228 15.636M237.668 194.36l20.156-3.637M238.828 189.254l16.12-2.91M257.824 190.723l6.926-19.274M264.75 171.45l-13.227-15.637M259.75 172.996l-10.582-12.508" stroke-width="1.2" stroke="#000" stroke-miterlimit="10" fill="none"/></g></svg>
